X: 32591
T: Planxty Maguire
R: polka
M: 2/4
K: Gmajor
d|c/B/A/G/ dG|B/c/d de/f/|gf/e/ ag/f/|gA Ad|
c/B/A/G/ Bd|cB AG|f/g/f/e/ de/f/|gG G2||
e|d/B/d/e/ dB|d/B/d/e/ dB|cA AB|cA Ad|
B/c/d Gd|Fd Ee|f/g/a ea|g/f/e/f/ d2||
EF GA|BG GA/B/|cA Ad|cBAB G2|
d/e/d/c/ Bd|ge ce|fg/a/ df|gG G2||

